projects/samara2/images/icons/car-parking.svg

<svg width="49" height="49" viewBox="0 0 49 49" fill="none" xmlns="http://www.w3.org/2000/svg">
<g clip-path="url(#clip0_363_1954)">
<path d="M2.86315 46.1368V19.3723H5.61328V22.7547H28.3679V0H5.61328V3.38244H2.86315V0H0V49H24.8941C24.2038 48.171 23.6805 47.1992 23.372 46.1368H2.86315ZM11.8631 4.36397H18.0526C20.584 4.36397 22.6436 6.4235 22.6436 8.95504C22.6436 11.4866 20.584 13.5461 18.0526 13.5461H14.7342V18.5215H11.8631V4.36397ZM2.86315 6.24559H5.61328V16.5092H2.86315V6.24559Z" fill="white"/>
<path d="M25.9279 43.9312C25.9279 46.7262 28.2017 48.9999 30.9966 48.9999C33.7914 48.9999 36.0652 46.7261 36.0652 43.9312C36.0652 41.1364 33.7914 38.8626 30.9966 38.8626C28.2017 38.8625 25.9279 41.1363 25.9279 43.9312Z" fill="white"/>
<path d="M38.8196 42.5835H49V30.0693H28.0789L17.2967 34.4738H21.0889V37.3449H17.2914V42.5835H23.1735C23.8158 38.8455 27.0781 35.9916 30.9966 35.9916C34.915 35.9915 38.1773 38.8455 38.8196 42.5835Z" fill="white"/>
<path d="M49 27.1981V19.892H36.4594L30.7429 27.1981H49Z" fill="white"/>
<path d="M49 49V46.1368H38.6211C38.3126 47.1993 37.7893 48.171 37.099 49H49Z" fill="white"/>
<path d="M19.7725 8.95502C19.7725 8.00661 19.001 7.23505 18.0526 7.23505H14.7342V10.6749H18.0526C19.0009 10.6749 19.7725 9.90335 19.7725 8.95502Z" fill="white"/>
</g>
<defs>
<clipPath id="clip0_363_1954">
<rect width="49" height="49" fill="white"/>
</clipPath>
</defs>
</svg>

<svg width="49" height="49" fill="none" xmlns="http://www.w3.org/2000/svg"><g clip-path="url(#clip0_363_1954)" fill="#fff"><path d="M2.863 46.137V19.372h2.75v3.383h22.755V0H5.613v3.382h-2.75V0H0v49h24.894a7.93 7.93 0 01-1.522-2.863H2.863zm9-41.773h6.19a4.596 4.596 0 014.59 4.591 4.596 4.596 0 01-4.59 4.591h-3.319v4.976h-2.87V4.364zm-9 1.882h2.75v10.263h-2.75V6.246zm23.065 37.685A5.074 5.074 0 0030.997 49a5.074 5.074 0 005.068-5.069 5.074 5.074 0 00-5.068-5.068 5.074 5.074 0 00-5.07 5.068z"/><path d="M38.82 42.584H49V30.069H28.079l-10.782 4.405h3.792v2.87H17.29v5.24h5.883c.642-3.739 3.904-6.592 7.823-6.592 3.918 0 7.18 2.854 7.823 6.592zM49 27.198v-7.306H36.46l-5.717 7.306H49zM49 49v-2.863H38.621A7.93 7.93 0 0137.1 49H49zM19.773 8.955c0-.948-.772-1.72-1.72-1.72h-3.319v3.44h3.319c.948 0 1.72-.772 1.72-1.72z"/></g><defs><clipPath id="clip0_363_1954"><path fill="#fff" d="M0 0h49v49H0z"/></clipPath></defs></svg>
